app/assets/images/heroicons/mini/window.svg

<svg width="20" height="20" viewBox="0 0 20 20" fill="none" xmlns="http://www.w3.org/2000/svg">
<path fill-rule="evenodd" clip-rule="evenodd" d="M4.25 2C3.00736 2 2 3.00736 2 4.25V15.75C2 16.9926 3.00736 18 4.25 18H15.75C16.9926 18 18 16.9926 18 15.75V4.25C18 3.00736 16.9926 2 15.75 2H4.25ZM3.5 8V15.75C3.5 16.1642 3.83579 16.5 4.25 16.5H15.75C16.1642 16.5 16.5 16.1642 16.5 15.75V8H3.5ZM5 4.25C4.58579 4.25 4.25 4.58579 4.25 5V5.01C4.25 5.42421 4.58579 5.76 5 5.76H5.01C5.42421 5.76 5.76 5.42421 5.76 5.01V5C5.76 4.58579 5.42421 4.25 5.01 4.25H5ZM7.25 5C7.25 4.58579 7.58579 4.25 8 4.25H8.01C8.42421 4.25 8.76 4.58579 8.76 5V5.01C8.76 5.42421 8.42421 5.76 8.01 5.76H8C7.58579 5.76 7.25 5.42421 7.25 5.01V5ZM11 4.25C10.5858 4.25 10.25 4.58579 10.25 5V5.01C10.25 5.42421 10.5858 5.76 11 5.76H11.01C11.4242 5.76 11.76 5.42421 11.76 5.01V5C11.76 4.58579 11.4242 4.25 11.01 4.25H11Z" fill="#0F172A"/>
</svg>

<svg xmlns="http://www.w3.org/2000/svg" viewBox="0 0 20 20" fill="currentColor" aria-hidden="true" data-slot="icon">
  <path fill-rule="evenodd" d="M4.25 2A2.25 2.25 0 0 0 2 4.25v11.5A2.25 2.25 0 0 0 4.25 18h11.5A2.25 2.25 0 0 0 18 15.75V4.25A2.25 2.25 0 0 0 15.75 2H4.25ZM3.5 8v7.75c0 .414.336.75.75.75h11.5a.75.75 0 0 0 .75-.75V8h-13ZM5 4.25a.75.75 0 0 0-.75.75v.01c0 .414.336.75.75.75h.01a.75.75 0 0 0 .75-.75V5a.75.75 0 0 0-.75-.75H5ZM7.25 5A.75.75 0 0 1 8 4.25h.01a.75.75 0 0 1 .75.75v.01a.75.75 0 0 1-.75.75H8a.75.75 0 0 1-.75-.75V5ZM11 4.25a.75.75 0 0 0-.75.75v.01c0 .414.336.75.75.75h.01a.75.75 0 0 0 .75-.75V5a.75.75 0 0 0-.75-.75H11Z" clip-rule="evenodd"/>
</svg>
